Newaita/actions/22/insert-link.svg

<svg height="22" viewBox="0 0 22 22" width="22" xmlns="http://www.w3.org/2000/svg"><g fill="#424242"><path d="m7.277344 1.992188c-3.023438 0-5.457032 2.433593-5.457032 5.457031 0 3.023437 2.433594 5.457031 5.457032 5.457031h1.363281c.253906 0 .457031-.203125.457031-.453125v-.910156c0-.253907-.203125-.457031-.457031-.457031h-1.363281c-2.015625 0-3.640625-1.621094-3.640625-3.636719s1.625-3.640625 3.640625-3.640625h1.363281c.253906 0 .457031-.199219.457031-.453125v-.910157c0-.25-.203125-.453124-.457031-.453124zm5.910156 0c-.25 0-.453125.203124-.453125.453124v.910157c0 .25.203125.453125.453125.453125h1.367188c2.015624 0 3.636718 1.625 3.636718 3.640625s-1.621094 3.636719-3.636718 3.636719h-1.367188c-.25 0-.453125.203124-.453125.457031v.910156c0 .25.203125.453125.453125.453125h1.367188c3.023437 0 5.457031-2.433594 5.457031-5.457031 0-3.023438-2.433594-5.457031-5.457031-5.457031zm0 0"/><path d="m7.730469 6.539062h6.367187c.253906 0 .457032.203126.457032.453126v.910156c0 .253906-.203126.457031-.457032.457031h-6.367187c-.25 0-.453125-.203125-.453125-.457031v-.910156c0-.25.203125-.453126.453125-.453126zm0 0"/><path d="m8.1875 16.089844h5.457031c.25 0 .453125.203125.453125.453125v.910156c0 .253906-.203125.457031-.453125.457031h-5.457031c-.253906 0-.457031-.203125-.457031-.457031v-.910156c0-.25.203125-.453125.457031-.453125zm0 0"/><path d="m11.824219 14.269531v5.457031c0 .253907-.203125.457032-.453125.457032h-.910156c-.25 0-.457032-.203125-.457032-.457032v-5.457031c0-.25.207032-.453125.457032-.453125h.910156c.25 0 .453125.203125.453125.453125zm0 0"/></g></svg>

<svg xmlns="http://www.w3.org/2000/svg" xmlns:xlink="http://www.w3.org/1999/xlink" width="22px" height="22px" viewBox="0 0 22 22" version="1.1">
<g id="surface1">
     <defs>
  <style id="current-color-scheme" type="text/css">
   .ColorScheme-Text { color:#424242; } .ColorScheme-Highlight { color:#eeeeee; }
  </style>
 </defs>
<path style="fill:currentColor" class="ColorScheme-Text" d="M 7.277344 1.992188 C 4.253906 1.992188 1.820312 4.425781 1.820312 7.449219 C 1.820312 10.472656 4.253906 12.90625 7.277344 12.90625 L 8.640625 12.90625 C 8.894531 12.90625 9.097656 12.703125 9.097656 12.453125 L 9.097656 11.542969 C 9.097656 11.289062 8.894531 11.085938 8.640625 11.085938 L 7.277344 11.085938 C 5.261719 11.085938 3.636719 9.464844 3.636719 7.449219 C 3.636719 5.433594 5.261719 3.808594 7.277344 3.808594 L 8.640625 3.808594 C 8.894531 3.808594 9.097656 3.609375 9.097656 3.355469 L 9.097656 2.445312 C 9.097656 2.195312 8.894531 1.992188 8.640625 1.992188 Z M 13.1875 1.992188 C 12.9375 1.992188 12.734375 2.195312 12.734375 2.445312 L 12.734375 3.355469 C 12.734375 3.605469 12.9375 3.808594 13.1875 3.808594 L 14.554688 3.808594 C 16.570312 3.808594 18.191406 5.433594 18.191406 7.449219 C 18.191406 9.464844 16.570312 11.085938 14.554688 11.085938 L 13.1875 11.085938 C 12.9375 11.085938 12.734375 11.289062 12.734375 11.542969 L 12.734375 12.453125 C 12.734375 12.703125 12.9375 12.90625 13.1875 12.90625 L 14.554688 12.90625 C 17.578125 12.90625 20.011719 10.472656 20.011719 7.449219 C 20.011719 4.425781 17.578125 1.992188 14.554688 1.992188 Z M 13.1875 1.992188 "/>
     <defs>
  <style id="current-color-scheme" type="text/css">
   .ColorScheme-Text { color:#424242; } .ColorScheme-Highlight { color:#eeeeee; }
  </style>
 </defs>
<path style="fill:currentColor" class="ColorScheme-Text" d="M 7.730469 6.539062 L 14.097656 6.539062 C 14.351562 6.539062 14.554688 6.742188 14.554688 6.992188 L 14.554688 7.902344 C 14.554688 8.15625 14.351562 8.359375 14.097656 8.359375 L 7.730469 8.359375 C 7.480469 8.359375 7.277344 8.15625 7.277344 7.902344 L 7.277344 6.992188 C 7.277344 6.742188 7.480469 6.539062 7.730469 6.539062 Z M 7.730469 6.539062 "/>
     <defs>
  <style id="current-color-scheme" type="text/css">
   .ColorScheme-Text { color:#424242; } .ColorScheme-Highlight { color:#eeeeee; }
  </style>
 </defs>
<path style="fill:currentColor" class="ColorScheme-Text" d="M 8.1875 16.089844 L 13.644531 16.089844 C 13.894531 16.089844 14.097656 16.292969 14.097656 16.542969 L 14.097656 17.453125 C 14.097656 17.707031 13.894531 17.910156 13.644531 17.910156 L 8.1875 17.910156 C 7.933594 17.910156 7.730469 17.707031 7.730469 17.453125 L 7.730469 16.542969 C 7.730469 16.292969 7.933594 16.089844 8.1875 16.089844 Z M 8.1875 16.089844 "/>
     <defs>
  <style id="current-color-scheme" type="text/css">
   .ColorScheme-Text { color:#424242; } .ColorScheme-Highlight { color:#eeeeee; }
  </style>
 </defs>
<path style="fill:currentColor" class="ColorScheme-Text" d="M 11.824219 14.269531 L 11.824219 19.726562 C 11.824219 19.980469 11.621094 20.183594 11.371094 20.183594 L 10.460938 20.183594 C 10.210938 20.183594 10.003906 19.980469 10.003906 19.726562 L 10.003906 14.269531 C 10.003906 14.019531 10.210938 13.816406 10.460938 13.816406 L 11.371094 13.816406 C 11.621094 13.816406 11.824219 14.019531 11.824219 14.269531 Z M 11.824219 14.269531 "/>
</g>
</svg>
